X: 42935
T: William Durette's Clog
R: barndance
M: 4/4
K: Dmajor
f>e|d>AF>A d>fe>d|c>BG>E B2B>B|A>Ac>e a>ge>c|d>ef>d A2f>e|
d>AF>A d>fe>d|c>BG>E B2B>B|A>Ac>e a>ge>c|1 d>fe>c d>g:|2 d>fe>c d2||
f>g|a2a>a b>af>d|e>de>g B2e>d|c>Ac>e a>ge>c|d>ef>d A2f>g|
a2a>a b>af>d|e>de>g B2e>d|c>Ac>e a>ge>c|d>fe>c d2f>g|
a2a>a b>af>d|e>de>g B2e>d|c>Ac>e a>ge>c|d>ef>g a2f>g|
a2a>a b>af>d|e>de>g B2e>d|c>Ac>e a>ge>c|d>fe>c d2||

